assets/img/braze_icons/airpods.svg

<svg fill="none" height="24" viewBox="0 0 24 24" width="24" xmlns="http://www.w3.org/2000/svg"><g clip-rule="evenodd" fill="#801ed7" fill-rule="evenodd"><path d="m1 7.625c0-2.83046 2.29454-5.125 5.125-5.125s5.125 2.29454 5.125 5.125v11.25c0 1.4497-1.1753 2.625-2.625 2.625-1.44975 0-2.625-1.1753-2.625-2.625v-6.1265c-2.77271-.0664-5-2.3348-5-5.1235z"/><path d="m12.75 7.625c0-2.83046 2.2945-5.125 5.125-5.125s5.125 2.29454 5.125 5.125c0 2.7887-2.2273 5.0571-5 5.1235v6.1265c0 1.4497-1.1753 2.625-2.625 2.625s-2.625-1.1753-2.625-2.625z"/></g></svg>

<svg width="24" height="24" viewBox="0 0 24 24" fill="none" xmlns="http://www.w3.org/2000/svg">
<path fill-rule="evenodd" clip-rule="evenodd" d="M1 7.625C1 4.79454 3.29454 2.5 6.125 2.5C8.95546 2.5 11.25 4.79454 11.25 7.625V18.875C11.25 20.3247 10.0747 21.5 8.625 21.5C7.17525 21.5 6 20.3247 6 18.875V12.7485C3.22729 12.6821 1 10.4137 1 7.625Z" fill="#801ED7"/>
<path fill-rule="evenodd" clip-rule="evenodd" d="M12.75 7.625C12.75 4.79454 15.0445 2.5 17.875 2.5C20.7055 2.5 23 4.79454 23 7.625C23 10.4137 20.7727 12.6821 18 12.7485V18.875C18 20.3247 16.8247 21.5 15.375 21.5C13.9253 21.5 12.75 20.3247 12.75 18.875V7.625Z" fill="#801ED7"/>
</svg>
